X:1
T:Orsus, orsus vous dormez trop
T:Clement Jannequin
T:Orsus, orsus vous dormez trop
C:Clement Jannequin
%%score [ 1 2 3 4 ]
L:1/8
Q:1/4=100
M:2/2
K:A
V:1 treble nm="Soprano" snm="S"
V:2 treble nm="Alto" snm="A"
V:3 treble-8 nm="Tenor" snm="T"
V:4 bass nm="Bass" snm="B"
V:1
 E4 E2 E2 | F4 A4 | G4 F4 | E4 z2 G2 | A3 G F2 E2 | B4 A3 G/F/ | GE A4 GF | E4 z4 | z2 F2 A3 A | %9
w: Or- sus, or-|sus, vous|dor- mez|trop, Ma-|da- me io- li-|et- * * *||te,|ma- da- me|
 G2 E2 B4 | A4 z4 | z8 | z2 E2 E2 E2 | F4 A4 | G4 F4 | E4 z2 G2 | A8 | z2 A2 B3 A | G2 A2 F4 | %19
w: io- li- et-|te.||Il est, il|est iour,|le- vez|sus, E-|scou,|e- scou- tez|l'a- lou- et-|
 E2 E2 A4 | z2 G2 B4 | z4 z2 G2 | A8 | z2 A2 B3 A | G2 A2 F4 | E4 A4 | B3 A G2 F2 | E2 A4 G2 | %28
w: te, e- scou,|e- scou,|e-|scou,|e- scou- tez|l'a- lou- et-|te, e-|scou- tez l'a- lou-|et- * *|
 A2 F2 A2 E2 | z G A2 E2 z G | A2 E2 z2 A2- | A2 A2 E2 A2 | A2 E2 A2 A2 | E2 z2 FGAF | GAFG AFGA | %35
w: te. Pe- ti- te,|pe- ti- te, pe-|ti- te, que|_ dit Dieu, que|dit Dieu, que dit|Dieu, il est iour, il|est iour, il est iour, il est iour,|
 FGAF G4 | z4 G4 | z2 G4 z2 | G4 z2 G2- | G2 G2 B2 G2 | z2 G2 B2 G2 | c8- | c8 | z2 c2 d2 cB | %44
w: il est iour, il est|iour,|iour,|iour, iour,|_ pe- ti- te,|pe- ti- te,|ty,|_|pe- ti- te, pe-|
 d2 cB d2 c2 | z2 c4 B2 | A2 G2 F4 | G4 A3 A | G3 G A3 A | G3 G A3 A | G3 G A3 A | %51
w: ti- te, pe- ti- te,|pe- ti-|te, pe- ti-|te, Li- re,|li- re, li- re,|li- re, li- re,|li- re, li- re,|
 G3 G A2 A/A/A/A/ | GGGG F3 F/F/ | (3G2 B2 B2 (3G2 B2 B2 | (3G2 B2 B2 G4- | G8 | z2 B2 B2 B2 | %57
w: li- re, ly fe- re- ly- re|ly ti- ty pi- ty- re li-|ron. que dit Dieu, que dit|Dieu, que dit Dieu,|_|Qu'on tu- e|
 c3 d c2 B2- | B2 A2 d2 d2 | c8 | z2 c2 B2 A2 | G8 | z2 c2 B2 A2 | G8 | z2 B2 B2 B2 | c3 d c2 B2- | %66
w: ce failx ia- loux,|_ cor- nu, co-|qu,|Tout e- sper-|du,|Tout ma- lo-|stru,|Il ne vaut|mye les bra- yes|
 B2 A2 d2 d2 | c8 | c6 c2 | c6 c2 | cccc cccc | cccc cccc | B4 z2 e2 | c/c/c/c/cc cccc | %74
w: _ d'ung vieulx pen-|du.|Tu- e,|tu- e|ce co- quin, co- quin, co- quin, co-|quin, co- quin, co- quin, co- quin, co-|quin. Pin|cho- re, li- re li- chim, chin, choc, choc, floc,|
 cc/c/cc c2 e2 | c/c/c/c/cc cccc | cc/c/cc c2 cc | c2 cc cccc | c4 z4 | c6 c2 | c6 c2 | c6 c2 | %82
w: floc, che- re- li- li- chim, pin|cho- re, li- re li- chim, chin, choc, choc, floc,|floc, che- re- ly, li- chim, fi- de-|ly, fi- de- ly, o- cy, o-|cy,|tu- e|tu- e|tu- e|
 B2 B2 e3 e | d2 c2 c2 BA | G4 z2 F2 | G3 F E3 F | G3 F E3 F | G3 F E3 F | G2 z c BcAA | %89
w: ce vil- lain cor-|nu, co- qu! _ _|_ Che-|ny, che- ny, che-|ny, che- ny, che-|ny, che- ny, che-|ny. Les- sez la es- iou-|
 G2 z c BcAA | G2 z c BcAA | G3 c BcAA | (3G2- G2 G2 (3c2 c2 c2 | (3B2- B2 B2 (3c2 A2 A2 | %94
w: yr, Saul- ter, jou- er, gau-|dir, Cha- cun en- tre- te-|nir, Par- ler à son plai-|sir, _ Veil- ler et dor-|mir, _ Cro- quir, à plai-|
 G3 G c2 B2 | A2 c2 B2 A2- | A2 GF G4 | A2 E2 E4 | z2 B2 c2 B2 | A2 c2 B2 A2- | A2 GF G4 | A8 |] %102
w: sir! Ou aul- tre-|ment va t'en mou-||rir, mou- rir,|Ou aul- tre-|ment va t'en mou-||rir!|
V:2
 z4 z2 A2 | A3 G F2 E2 | B4 A4- | A2 GF G2 E2- | E2 D2 C4 | B,3 C D2 C2- | C2 z2 F2 A2- | AGFE B4 | %8
w: Ma-|da- me io- li-|et- *|* * * te, vous|_ dor- mez|trop, _ _ _|_ Ma- da-|* me io- li- et-|
 F2 z2 C2 E2- | ED C2 B,2 F2- | F2 C2 z2 E2 | E2 E2 F3 G | A2 A2 G2 E2 | A4 z2 C2 | E2 E2 A4- | %15
w: te, ma- da-|* me io- li- et-|* te. Il|est, il est iour,|le- vez sus, E-|scou, e-|scou, e- scou-|
 A2 A2 G2 G2 | F4 E4 | z4 z2 G2 | B2 A2 z2 D2 | E2 C2 z4 | G2 B2 z2 B,2 | E2 F2 E3 G | F4 E4 | %23
w: * tez l'a- lou-|et- te,|e-|scou- tez e-|scou- tez|e- scou, e-|scou- tez l'a- lou-|et- te,|
 z4 z2 G2 | B2 A2 z2 D2 | E2 C2 z4 | z2 G2 B3 B | A2 F2 E2 E2 | z E A2 F2 z C | E2 CD EC/C/ E2 | %30
w: e-|scou- tez e-|scou- tez|e- scou- tez|l'a- lou- et- te,|Pe- ti- te, pe-|ti- te, pe- ti- te, pe- ti-|
 CDEC/C/ E2 CC | FFEA, B,CA,B, | E2 z C FFEA | GE A4 cB/c/ | Bc B2 cB/c/Bc | BBcB/B/ B2 z2 | %36
w: te, pe- ti- te, pe- ti- te, que|te dit Dieu, il est iour, il est|iour, que te dit Dieu, pe-|ti- te, ty, fe- ly- re|ly ti- ty fe- ly- re ly ti-|ty pi- ty- fe- re- ly-|
 z EFE z2 z E | FE z2 z EFE | z2 z E (3F2 E2 B,2 | CB, B2 GA B2 | GA B2 GA B2 | z4 AAAE | %42
w: pe- ti- te, pe-|ti- te, pe- ti- te,|pe- ti- te, pe-|ti- te, ty, il est iour,|il est iour, il est iour,|que te dit Dieu,|
 AAAE AAAE | A4 FG A2 | FG A2 FG A2- | A2 CD E4- | E4 z4 | z8 | C3 C F2 FF | %49
w: que te dit Dieu, que te dit Dieu,|ty, il est iour,|il est iour, il est iour,|_ il est iour,|_||Li- re, li- re, li-|
 B,2 B,/B,/B,/B,/ DDDD | B,3 B, A,2 A,A, | B,4 z4 | B3 B B/A/B/c/ B2 | (3B2 G2 E2 (3B2 G2 E2 | %54
w: ron. fe- re- ly- re ly ti- ty pi-|ty- re ly- re li-|ron.|li- re, fe- re- ly- re ly|que dit Dieu, que dit Dieu,|
 (3B2 G2 E2 B/A/B/c/ B2- | B2 z2 B/A/B/c/ B2- | BAGF G4 | A2 A2 A3 G | F2 E2 F2 G2 | A4 z2 A2 | %60
w: que dit Dieu, fe- re- ly- re ly|_ fe- re- ly- re ly|_ ti- ty pi- ty-|Qu'on tu- e ce|failx ia- loux, co-|qu, Tout|
 G2 A2 E4 | z4 z2 B2 | G2 A2 E4 | z4 z2 B2 | G/G/G/G/GG G4 | z4 A3 G | F2 E2 F2 G2 | A2 A3 GFG | %68
w: chas- si- eulx,|Tout|mar- mi- teux,|Pin|cho- re, li- re li- chin, chin,|Te ro-|ga- mus, au- di|nos, Sain- cte tes- te|
 A4 z2 E2 | A4 E4 | A3 G FG A2 | A3 G FG A2 | GA B2 EF G2 | z2 CD E3 D | CB,CA, A4- | %75
w: Dieu! Pe-|ti- te,|Sain- cte tes- te Dieu!|Sain- cte tes- te Dieu!|Il est iour, il est temps,|il est temps, temps|d'al- ler boy- re. Fan|
 A4 A/A/A/A/AA | A4 A/A/A/A/AE | A4 z2 A2- | A2 A2 A4 | z2 A4 A2 | A4 z2 A2- | A2 A2 A4 | %82
w: _ fa- ri- la- ri- la- ron|fan, fa- ri- la- ri- la- ron|fan, Or,|_ oy- ez,|or, oy-|ez, or,|_ oy- ez,|
 z4 E/E/E/E/EE | A/A/A/A/AA F/F/F/F/FF | B,2 EE EEA,A, | EEEE E2 EE | EEEE A,A,EE | E2 EE CA,A,A, | %88
w: fa- ri- la- ri- la- ron|fa- ri- la- ri- la- ron fa- ri- la- ri- la- ron|fan, On vous faict as- sa- voir,|De par les oy- seaulx, Que cou-|rez tost pour veoir, Par mons et par|vaulx, Le trai- stre co- qu, Tei-|
 B,2 C2 G,2 A,2 | B,2 C2 G,2 A,2 | B,2 C2 G,2 A,2 | B,2 C2 G,2 A,2 | B,2 B,2 A,4 | z4 z2 E2 | %94
w: gneux, Ton- du, Mor-|veux, Bos- su, Boi-|teux, Tor- tu, Ron-|gneux, Te- stu, Bri-|gneux, Ba- tu.|Que|
 B2 B2 A2 G2 | F8 | E4 z2 E2 | EDCB, A,2 A2 | A2 G2 A2 G2 | F8 | E8- | E8 |] %102
w: l'on con- danne à|mou-|rir, mou-|rir, _ _ _ _ Que|l'on con- danne à|mou-|rir!|_|
V:3
 A8 | A4 A4 | B4 d4 | c4 B4 | A4 z2 c2 | e3 e f2 f2 | e2 dc d4 | c2 c2 e3 e | d2 B2 z2 c2 | %9
w: Or-|sus, or-|sus, vous|dor- mez|trop, Ma-|da- me io- li-|et- * * *|te, ma- da- me|io- li- ma-|
 e3 e d2 B2 | f4 e3 d/c/ | BABc dccB | c8 | z2 A2 A2 A2 | B4 d4 | c4 B4 | A4 z2 c2 | e8- | e4 z4 | %19
w: da- me io- li-|et- * * *||te.|Il est, il|est iour,|le- vez|sus, E-|scou,|_|
 z4 z2 c2 | e6 d2 | c2 d2 B4 | A4 z2 c2 | e8- | e4 z4 | z4 z2 c2 | e6 d2 | c2 d2 B4 | A4 ABcA | %29
w: e-|scou- tez|l'a- lou- et-|te, e-|scou,|_|e-|scou- tez|l'a- lou- et-|te, Il est iour, il|
 BcAB cABc | ABcA BcAB | c4 z2 c2- | c2 z2 c4 | z2 c4 cd | ecde cdec | decd e2 e2 | e2 B2 e2 e2 | %37
w: est iour, il est iour, il est iour,|il est iour, il est iour, il est|iour, iour,|_ iour,|iour, il est|iour, il est iour, il est iour, il|est iour, il est iour, que|dit Dieu, que dit|
 B2 e2 e2 B2 | e2 e2 B2 e2 | e2 e2 Beee | Beee Beee | c2 e2 f2 ec | f2 ec f2 ec | f8- | f8 | e8 | %46
w: Dieu, que dit Dieu,|que dit Dieu, que|te dit Dieu, que te dit|Dieu, que te dit Dieu, que te dit|Dieu, pe- ti- te, pe-|ti- te, pe- ti- te, pe-|ti-||te,|
 cdec decd | e4 f3 f | e3 e d3 d | e3 e f2 f/f/f/f/ | eeee d3 d | e2 e/e/e/e/ ffff | e3 e d2 dd | %53
w: il est iour, il est iour, il est|iour, Li- re,|li- re, li- re,|li- re, ly fe- re- ly- re|ly ti- ty pi- ty- re|ly fe- re- ly- re ly ti- ty pi-|ty- re li- re, li-|
 e8 | z4 (3z2 e2 e2 | (3B2 e2 e2 (3B2 e2 e2 | B8 | z8 | z8 | z2 e2 e2 e2 | e8 | z2 e2 e2 e2 | e8 | %63
w: ron.|que dit|Dieu, que dit Dieu, que dit|Dieu,|||Tout chas- si-|eulx,|Tout far- ci-|neux,|
 z2 e2 e2 e2 | e8 | z8 | z8 | z2 e2 c4 | z2 e2 c4 | z2 e2 cece | f2 e2 cece | f2 e2 (3c2- c2 e2 | %72
w: Tout mar- mi-|teux,|||co- qu,|co- qu,|co- qu, co- qu, co-|qu, co- qu, co- qu, co-|qu, co- qu, _ co-|
 (3e2- e2 e2 (3c2- c2 c2 | (3e2- e2 f2 (3e2- e2 c2 | (3e2- e2 f2 (3e2- e2 c2 | %75
w: quin. _ Ma- rault, _ Lour-|din, _ Lour- daut, _ Pe-|tin, _ Pe- taut, _ Ny-|
 (3e2- e2 f2 (3e2- e2 c2 | (3f2- f2 e2 (3e2- e2 c2 | (3f2- f2 e2 e2 e2 | cece c2 e2 | cece c4 | %80
w: ault, _ Ny- gault, _ Be-|din, _ Be- dault, _ Ves-|sin, _ Ves- saut, co-|qu, co- qu, co- qu, co-|qu, co- qu, co- qu,|
 z2 e2 e2 ee | e2 e2 e2 ee | e2 ee (3c2- c2 e2 | (3f2- f2 f2 (3c2- c2 d2 | e2 B2 cA c2- | %85
w: Hou, hou, qu'il est|lait, hou, hou, qu'il est|lait, ce co- qu, _ co-|qu, _ tor- tu, _ bos-|su! Va, faulx tru- ant,|
 c2 B2 cA c2- | c2 B2 cA c2- | c2 B2 c3 d | e2 e4 c2 | e6 c2 | e6 c2 | e6 c2 | e6 c2 | e6 c2 | %94
w: _ Co- quin, pu- ant,|_ Tout mal pen- sant,|_ Et mes- di-|sant! Soeuf- fre,|soeuf- fre!|soeuf- fre!|soeuf- fre!|soeuf- fre!|soeuf- fre!|
 e4 e2 e2 | c4 d4 | B4 B4 | A4 z2 c2 | e6 e2 | c4 d4 | B4 B4 | A8 |] %102
w: Ou aul- tre-|ment t'en|va mou-|rir, Ou|aul- tre-|ment t'en|va mou-|rir!|
V:4
 z8 | z8 | z8 | z2 E,2 E,2 E,2 | F,4 A,4 | G,2 G,2 F,3 E,/D,/ | C,4 z2 F,2 | A,3 A, G,2 E,2 | %8
w: |||Or- sus, or-|sus, vous|dor- mez trop, _ _|_ Ma-|da- me io- li-|
 B,4 A,4 | z8 | z2 F,2 A,3 A, | G,2 E,2 B,4 | A,4 z2 A,2 | A,2 A,2 F,2 F,2 | E,2 E,2 D,4 | %15
w: et- te,||ma- da- me|io- li- et-|te. Il|est, il est iour,|le- vez sus,|
 z2 A,2 E,4 | z2 F,2 A,4- | A,4 z4 | z2 A,2 B,3 A, | G,2 A,2 F,4 | E,3 F, G,A,B,G, | A,2 D,2 E,4 | %22
w: E- scou,|E- scou,|_|e- scou- tez|l'a- lou- et-||* * te,|
 z2 F,2 A,4- | A,4 z4 | z2 A,2 B,3 A, | G,2 A,2 F,4 | E,6 F,G, | A,2 D,2 E,4 | z4 F,2 A,2 | %29
w: e- scou,|_|e- scou- tez|l'a- lou- et-||* * te,|Pe- ti-|
 E,2 z D, A,2 E,2 | z D, A,2 E,2 z2 | F,G,A,F, G,A,F,G, | A,F,G,A, F,G,A,F, | G,A,F,G, A,2 A,A, | %34
w: te, pe- ti- te,|pe- ti- te,|il est iour, il est iour, il est|iour, il est iour, il est iour, il|est iour, il est iour, que dit|
 E,2 z2 A,A, E,2 | z2 A,A, E,2 C,D, | E,C,D,E, C,D,E,C, | D,E,C,D, E,C,D,E, | C,D,E,C, D,E,C,D, | %39
w: Dieu, que dit Dieu,|que dit Dieu, il est|iour, il est iour, il est iour, il|est iour, il est iour, il est iour,|il est iour, il est iour, il est|
 E,8- | E,8 | z A,A,A, F,A,A,A, | F,A,A,A, F,A,A,A, | F,2 A,2 B,2 A,F, | B,2 A,F, B,2 A,F, | %45
w: iour,|_|que te dit Dieu, que te dit|Dieu, que te dit Dieu, que te dit|Dieu, pe- ti- te, pe-|ti- te, pe- ti- te, pe-|
 A,4 E,4 | z2 E,2 B,4 | E,4 z4 | z4 F,3 F, | E,3 E, D,3 D, | E,3 E, F,2 F,/F,/F,/F,/ | %51
w: ti- te,|pe- ti-|te,|Li- re,|li- re, li- re,|li- re, ly fe- re- ly- re|
 E,E,E,E, D,2 D,D,/D,/ | E,3 E, B,2 B,B, | E,8- | E,8- | E,8 | z2 E,2 E,2 E,2 | A,3 B, C2 D2- | %58
w: ly ti- ty pi- ty- re li- re,|li- re, li- re, li-|ron.|_||Qu'on tu- e|ce failx ia- loux,|
 D2 C2 B,2 B,2 | A,8 | z2 A,2 G,2 A,2 | E,8 | z2 A,2 G,2 A,2 | E,8 | z2 E,2 E,2 E,2 | %65
w: _ cor- nu, co-|qu,|Tout ma- lo-|stru,|Tout e- sper-|du,|Il ne vaut|
 A,3 B, C2 D2- | D2 C2 B,2 B,2 | A,2 A,2 A,2 A,2 | F,2 A,2 A,2 A,2 | F,2 A,2 A,2 A,2 | %70
w: mye les bra- yes|_ d'ung vieulx pen-|du. Qu'il soit tor-|che, Des- si- que-|te, Ba- tu, fra-|
 F,2 A,2 A,2 A,2 | F,2 A,2 A,2 A,2 | E,4 z4 | A,2 A,2 A,2 A,A, | A,2 A,A, A,4 | A,2 A,2 A,2 A,A, | %76
w: pe, Qu'il soit bru-|sle, Qu'il soit hui-|le.|Hou, hou, hou, qu'il est|lait, le ia- loux!|Hou, hou, hou, qu'il est|
 A,2 A,A, A,4 | z2 A,2 A,2 A,2 | A,2 A,2 A,2 A,2 | A,2 A,2 A,2 A,2 | A,2 A,2 A,2 A,2 | %81
w: lait, le ia- loux!|Qu'il soit li-|e, Tres bien ba-|gue, Ser- re, trous-|se, Fort gar- ro-|
 A,2 A,2 A,2 A,2 | G,4 A,4 | F,4 F,4 | E,2 E,2 A,2 A,2 | E,2 G,2 A,4 | E,2 E,2 A,2 A,2 | %87
w: te, Et puis get-|te Dens|ung fos-|se! Ou aul- tre-|ment qu'il soeuf-|fre, Quant à sa|
 E,2 G,2 A,4 | E,2 C,2 E,2 F,2 | E,2 C,2 E,2 F,2 | E,2 C,2 E,2 F,2 | E,2 C,2 E,2 F,2 | %92
w: femme on s'of-|fre De la bai-|ser, De l'a- co-|leur, De l'em- bras-|ser, Et ren- ver-|
 E,2 E,2 A,3 A, | G,2 G,2 A,2 A,2 | E,2 E,2 A,2 E,2 | F,4 D,4 | E,4 E,4 | A,,2 A,2 A,4 | %98
w: ser, Que cha- cun|fa- ce son plai-|sir! Ou aul- tre-|ment t'en|va mou-|rir, mou- rir,|
 z2 E,2 A,2 E,2 | F,4 D,4 | E,4 E,4 | A,,8 |] %102
w: Ou aul- tre-|ment va|t'en mou-|rir!|

